X:1
L:1/8
M:2/2
K:D
 defe dcBA | GFdF E2 E2 | defe dcBA | BdAF D2 D2 :: (3DED AF (3DED AF | (3EFE BG (3EFE BG | 
 (3DED AF (3DED AF | BdAF D2 D2 :: a>ba>f a>ba>f | (ge)(be) (ge)(be) | a>ba>f a>ba>f | 
 (ge)(bf) d2 d2 :|
